X: 17354
T: High Drive, The
R: reel
M: 4/4
K: Dmajor
|:A|d3 e fedA|B/B/B gB BAGB|A/A/A Ad fedf|eA A/A/A afge|
dcde fedA|B2 gB BAGB|AFAd fedf|edce d3:|
a2 ag afdA|B2 gB BAGB|A2 Ad fedf|eA A/A/A efge|
a2 ag afdA|B2 gB BAGB|AFAd fedf|edce d3|
a2 ag afdA|B2 gB BAGB|A2 Ad fedf|eA A/A/A afge|
dcde fedA|B/B/B gB BAGB|AFAd fedf|edce d2 dA|
|:dAeA fA A/A/A|gBBA Bgag|fA A/A/A afdf|eA A/A/A afge|
dAeA fA A/A/A|gBBA Bgag|fA A/A/A afdf|edce d2 dA:|
|:adda ddad|gddg ddgd|fddf ddfd|edde defg|
adda ddad|gBdg BdGB|A2 Ad fedf|edce d2 df:|

